X:1401
T:The Devil's dream
T:The Devil among the tailors
C:anon.
O:Ireland
R:Reel
Z:Transcribed by Frank Nordberg - http://www.musicaviva.com
F:http://abc.musicaviva.com/tunes/ireland/the-devils-dream.abc
M:2/4
L:1/16
K:A
e2|"A"agae agae|"A"agae fedc|"Bm"dfBf dfBf|"Bm"dfBf "E7"afge|\
"A"agae  agae|"A"agae fedc|"D"dfed "E7"cBAG|"A"A2A2 A2::e2|\
"A"ceAe ceAe|"A"ceAe fedc|"Bm"dfBf dfBf|"Bm"dfBf "E7"agfe|\
"A"ceAe ceAe|"A"ceAe fedc|"D"dfed "E7"cBAG|"A"A2A2 A2:|
W:
W:
W:  From Musica Viva - http://www.musicaviva.com
W:  the Internet center for free sheet music downloads.
